X: 1952
T: Arriving To St. John's
R: jig
M: 6/8
K: Amajor
c2d|:e3 efe|A3 ABc|{c}d3 ded|F3 FGA|
B3BcB|G2B E3|1 e3 fed|c3 c2d:|2 efe dcB|{c}A3 A2||
A,2C A,CE|Acc cBA|FED FED|d3 dcB|
G3 GFE|EGE BGB|1 e3 fed|c3 c2A:|2 efe dcB|{c}A3 c2d||

